public/byteverse/hero/ninja.svg

<svg width="261" height="358" viewBox="0 0 261 358" fill="none" xmlns="http://www.w3.org/2000/svg">
<path d="M216.051 344.997V354.639L260.179 352.496C260.179 352.496 261.786 348.747 257.501 344.997C253.216 341.248 235.539 336.427 235.539 336.427C235.539 336.427 216.255 323.571 220.005 317.143C223.754 310.715 229.111 316.607 229.111 310.179C229.111 303.751 214.112 289.824 208.22 278.04C202.328 266.255 211.027 272.683 216.051 269.469C221.076 266.255 185.187 252.328 169.117 235.187C153.047 218.046 138.049 215.367 141.263 207.333C144.477 199.298 144.477 181.085 144.477 181.085C144.477 181.085 159.475 187.513 163.225 181.085C166.974 174.657 161.618 139.839 154.654 130.197C147.691 120.556 153.047 123.234 118.765 122.698C84.4826 122.163 64.6632 119.484 60.3779 118.949C56.0926 118.413 58.5031 113.399 58.5031 108.6C58.5031 103.8 58.2138 93.6012 51.6574 93.4298C45.1009 93.2583 46.9971 98.6899 43.2475 98.6899C39.4979 98.6899 34.9876 105.407 38.2016 105.964C41.4155 106.521 52.8787 120.556 44.3081 120.556C35.7375 120.556 29.3096 121.627 25.56 115.735C21.8104 109.842 23.9209 107.164 19.6356 109.382C15.3503 111.599 18.5643 115.917 12.672 117.524C6.77975 119.131 1.50885 126.491 10.6151 127.026C19.7213 127.562 22.8817 132.383 22.8817 132.383C22.8817 132.383 14.8468 151.131 15.3825 157.559C15.3825 157.559 37.8802 166.665 49.6647 161.309C61.4492 155.952 71.0911 172.557 77.519 174.164C83.947 175.771 76.4477 212.196 78.5904 218.089C80.733 223.981 23.953 265.762 35.2019 268.441C46.4507 271.119 41.6298 284.51 37.8802 296.831C34.1306 309.151 32.5236 317.721 36.8089 325.756C48.4546 324.598 60.2109 325.321 71.6268 327.899C89.3036 332.184 103.231 322.542 103.231 322.542C103.231 322.542 92.4104 300.045 93.8031 292.545C95.1958 285.046 121.411 298.973 130.228 295.224C139.045 291.474 139.088 286.653 139.088 286.653C139.088 286.653 162.121 295.224 162.121 307.544C162.121 319.864 163.728 331.113 172.834 332.184C181.941 333.256 202.831 330.577 202.831 330.577C202.831 330.577 216.051 340.712 216.051 344.997Z" fill="black"/>
<path d="M61.9852 320.357C66.8061 334.819 63.8279 344.461 59.4247 346.068C55.0216 347.675 40.0231 342.854 35.7378 346.068C31.4526 349.282 31.9882 357.317 31.9882 357.317H88.2326C90.9109 357.317 87.6969 341.783 88.2326 338.837C88.7682 335.891 78.055 324.106 78.055 316.071C78.055 308.036 61.9852 320.357 61.9852 320.357Z" fill="black"/>
<path d="M0.0507812 127.069C0.0507812 127.069 131.105 35.5248 237.23 0.846191C237.23 0.846191 89.2168 67.5252 4.35749 131.687L0.0507812 127.069Z" fill="black"/>
<path d="M138.711 132.383C146.414 125.848 138.936 118.713 150.496 118.038C162.056 117.363 152.403 107.732 152.403 106.254C152.403 104.775 153.635 102.225 153.078 101.668C153.078 101.668 160.352 101.893 159.57 99.5258C158.788 97.1581 155.199 92.8621 151.621 89.4768C151.621 89.4768 158.338 88.6626 160.802 88.0948C163.266 87.527 153.078 83.9595 153.078 83.9595L152.403 80.4777C152.403 80.4777 137.726 75.6674 140.083 61.7724C142.44 47.8774 152.51 50.2343 152.51 50.2343L152.06 45.949C152.06 45.949 144.893 45.2741 145.461 36.3071C145.461 36.3071 127.977 46.399 132.466 66.1113C128.946 64.4798 125.136 63.5657 121.26 63.4222C115.549 63.4222 102.779 74.2854 106.358 92.3479C101.709 98.2506 97.6199 104.574 94.1445 111.235C90.7572 118.357 88.094 125.8 86.1953 133.454C86.1953 133.454 126.166 143.021 138.711 132.383Z" fill="black"/>
</svg>

<svg width="261" height="358" fill="none" xmlns="http://www.w3.org/2000/svg"><path d="M216.051 344.997v9.642l44.128-2.143s1.607-3.749-2.678-7.499c-4.285-3.749-21.962-8.57-21.962-8.57s-19.284-12.856-15.534-19.284c3.749-6.428 9.106-.536 9.106-6.964 0-6.428-14.999-20.355-20.891-32.139-5.892-11.785 2.807-5.357 7.831-8.571 5.025-3.214-30.864-17.141-46.934-34.282-16.07-17.141-31.068-19.82-27.854-27.854 3.214-8.035 3.214-26.248 3.214-26.248s14.998 6.428 18.748 0c3.749-6.428-1.607-41.246-8.571-50.888-6.963-9.641-1.607-6.963-35.889-7.499-34.282-.535-54.102-3.214-58.387-3.749-4.285-.536-1.875-5.55-1.875-10.349 0-4.8-.29-14.999-6.846-15.17-6.556-.172-4.66 5.26-8.41 5.26s-8.26 6.717-5.045 7.274c3.214.557 14.677 14.592 6.106 14.592-8.57 0-14.998 1.071-18.748-4.821-3.75-5.893-1.64-8.571-5.924-6.353-4.286 2.217-1.072 6.535-6.964 8.142-5.892 1.607-11.163 8.967-2.057 9.502 9.106.536 12.267 5.357 12.267 5.357s-8.035 18.748-7.5 25.176c0 0 22.498 9.106 34.283 3.75 11.784-5.357 21.426 11.248 27.854 12.855 6.428 1.607-1.071 38.032 1.071 43.925 2.143 5.892-54.637 47.673-43.388 50.352 11.249 2.678 6.428 16.069 2.678 28.39-3.75 12.32-5.356 20.89-1.071 28.925a109.07 109.07 0 0 1 34.818 2.143c17.677 4.285 31.604-5.357 31.604-5.357s-10.82-22.497-9.428-29.997c1.393-7.499 27.608 6.428 36.425 2.679 8.817-3.75 8.86-8.571 8.86-8.571s23.033 8.571 23.033 20.891c0 12.32 1.607 23.569 10.713 24.64 9.107 1.072 29.997-1.607 29.997-1.607s13.22 10.135 13.22 14.42z" fill="#000"/><path d="M61.985 320.357c4.821 14.462 1.843 24.104-2.56 25.711-4.403 1.607-19.402-3.214-23.687 0s-3.75 11.249-3.75 11.249h56.245c2.678 0-.536-15.534 0-18.48.535-2.946-10.178-14.731-10.178-22.766 0-8.035-16.07 4.286-16.07 4.286zM.05 127.069S131.106 35.525 237.23.846c0 0-148.013 66.68-232.873 130.841l-4.306-4.618z" fill="#000"/><path d="M138.711 132.383c7.703-6.535.225-13.67 11.785-14.345 11.56-.675 1.907-10.306 1.907-11.784 0-1.479 1.232-4.029.675-4.586 0 0 7.274.225 6.492-2.142-.782-2.368-4.371-6.664-7.949-10.05 0 0 6.717-.813 9.181-1.381 2.464-.568-7.724-4.135-7.724-4.135l-.675-3.482s-14.677-4.81-12.32-18.706c2.357-13.895 12.427-11.538 12.427-11.538l-.45-4.285s-7.167-.675-6.599-9.642c0 0-17.484 10.092-12.995 29.804a29.22 29.22 0 0 0-11.206-2.689c-5.711 0-18.481 10.863-14.902 28.926a120.948 120.948 0 0 0-12.214 18.887 117.72 117.72 0 0 0-7.949 22.219s39.971 9.567 52.516-1.071z" fill="#000"/></svg>
